X: 293
T: 9. La Racrocheuse
T: la Raccrocheuse
B: Robert Landrin "Potpourri fran\,cois des contre-danse ancienne tel quil se danse chez la Reine ..." 1760 p.29 #3 dance 9 #9
S: http://memory.loc.gov/cgi-bin/query/D?musdibib:2:./temp/~ammem_EbRS:
Z: 2014 John Chambers <jc:trillian.mit.edu>
N: The 3rd G in bar 6 has a flag; changed to agree with bar 2. Similarly bar 18.
N: The 2nd strain has 14 bars, phrased 6+6+2.
M: 6/8
L: 1/8
K: G
% - - - - - - - - - - - - - - - - - - - - - - - - -
d |\
Bcd Bcd | G2G G2c | BAG AGF | GDB, G,2d | Bcd Bcd |
G2G G2c | BAG AGF | G2G G2 :||: "2F"D | GFG AGA | B2G G2A | BAB cBc |
d3- d3d | dcB ABG | !+!A3- A2D | GFG AGA | BAB cBc | dcB ABG |
!+!A2D D2c | BAG AGF | G2G G2c | BAG AGF | G3- G2 :|
% - - - - - - - - - - - - - - - - - - - - - - - - -

%%newpage
%%sep 1 1 500
%%sep 1 1 500
